flaticon/file-type/premiere.svg

<svg xmlns="http://www.w3.org/2000/svg" width="32" height="32" viewBox="0 0 24 24">
    <path d="M 18.589844 0 L 5.410156 0 C 2.425781 0 0 2.425781 0 5.410156 L 0 18.589844 C 0 21.574219 2.425781 24 5.410156 24 L 18.589844 24 C 21.574219 24 24 21.574219 24 18.589844 L 24 5.410156 C 24 2.425781 21.574219 0 18.589844 0 Z M 23.109375 18.589844 C 23.109375 21.082031 21.082031 23.109375 18.589844 23.109375 L 5.410156 23.109375 C 2.917969 23.109375 0.890625 21.082031 0.890625 18.589844 L 0.890625 5.410156 C 0.890625 2.917969 2.917969 0.890625 5.410156 0.890625 L 18.589844 0.890625 C 21.082031 0.890625 23.109375 2.917969 23.109375 5.410156 Z M 23.109375 18.589844"/>
    <path d="M10.257812 5.332031L5.972656 5.332031 5.972656 17.777344 7.253906 17.777344 7.253906 13.6875 10.382812 13.6875C10.988281 13.6875 11.507812 13.578125 11.945312 13.359375 12.386719 13.140625 12.710938 12.886719 12.925781 12.59375 13.136719 12.304688 13.308594 11.933594 13.429688 11.476562 13.554688 11.019531 13.628906 10.640625 13.652344 10.335938 13.675781 10.035156 13.6875 9.675781 13.6875 9.261719 13.6875 8.089844 13.40625 7.140625 12.84375 6.417969 12.28125 5.695312 11.417969 5.332031 10.257812 5.332031zM12.398438 10.042969C12.394531 10.222656 12.351562 10.488281 12.277344 10.84375 12.199219 11.199219 12.09375 11.472656 11.957031 11.664062 11.820312 11.851562 11.601562 12.03125 11.308594 12.195312 11.011719 12.363281 10.648438 12.445312 10.222656 12.445312L7.253906 12.445312 7.253906 6.578125 10.152344 6.578125C11.65625 6.578125 12.410156 7.480469 12.410156 9.28125 12.410156 9.613281 12.40625 9.867188 12.398438 10.042969zM16.640625 9.332031L16.640625 8.871094 15.394531 8.871094 15.394531 17.777344 16.675781 17.777344 16.675781 11.183594C16.675781 10.792969 16.851562 10.480469 17.199219 10.25 17.550781 10.015625 17.945312 9.902344 18.390625 9.902344 18.835938 9.902344 19.265625 9.96875 19.679688 10.097656L20 8.890625C19.515625 8.792969 19.070312 8.746094 18.667969 8.746094 17.847656 8.746094 17.171875 8.941406 16.640625 9.332031zM16.640625 9.332031"/>
</svg>

<svg xmlns="http://www.w3.org/2000/svg" width="32" height="32" viewBox="0 0 24 24">
    <path d="M18.59 0H5.41A5.415 5.415 0 0 0 0 5.41v13.18A5.415 5.415 0 0 0 5.41 24h13.18A5.415 5.415 0 0 0 24 18.59V5.41A5.415 5.415 0 0 0 18.59 0zm4.52 18.59a4.525 4.525 0 0 1-4.52 4.52H5.41a4.525 4.525 0 0 1-4.52-4.52V5.41A4.525 4.525 0 0 1 5.41.89h13.18a4.525 4.525 0 0 1 4.52 4.52zm0 0"/>
    <path d="M10.258 5.332H5.973v12.445h1.28v-4.09h3.13c.605 0 1.125-.109 1.562-.328.442-.218.766-.472.98-.765.212-.29.384-.66.505-1.117.125-.457.199-.836.222-1.141.024-.3.036-.66.036-1.074 0-1.172-.282-2.121-.844-2.844-.563-.723-1.426-1.086-2.586-1.086zm2.14 4.711c-.003.18-.046.445-.12.8-.079.356-.184.63-.321.821-.137.188-.355.367-.648.531-.297.168-.66.25-1.086.25h-2.97V6.578h2.9c1.503 0 2.257.902 2.257 2.703 0 .332-.004.586-.012.762zm0 0M16.64 9.332v-.46h-1.245v8.905h1.28v-6.593c0-.391.177-.704.524-.934a2.09 2.09 0 0 1 1.192-.348c.445 0 .875.067 1.289.196L20 8.89a6.78 6.78 0 0 0-1.332-.145c-.82 0-1.496.195-2.027.586zm0 0"/>
</svg>
